src/lib/packages/icons/src/assets/line/face-grin-sweat.svg

<svg width="24" height="24" viewBox="0 0 24 24" fill="none" xmlns="http://www.w3.org/2000/svg">
<path d="M20 7.75C18.58 7.75 17.5 6.64999 17.5 5.17999C17.5 3.58999 19.26 1.69 19.46 1.48C19.74 1.18 20.26 1.18 20.55 1.48C20.75 1.69 22.51 3.58999 22.51 5.17999C22.51 6.63999 21.43 7.75 20.01 7.75H20ZM20 3.16C19.49 3.83 19 4.65999 19 5.17999C19 5.80999 19.41 6.25 20 6.25C20.59 6.25 21 5.80999 21 5.17999C21 4.65999 20.51 3.83 20 3.16ZM22.75 12C22.75 11.15 22.65 10.33 22.46 9.53999C22.36 9.13999 21.96 8.89001 21.55 8.99001C21.15 9.09001 20.9 9.48999 21 9.89999C21.17 10.57 21.25 11.27 21.25 12C21.25 17.1 17.1 21.25 12 21.25C6.9 21.25 2.75 17.1 2.75 12C2.75 6.9 6.9 2.75 12 2.75C12.91 2.75 13.82 2.87999 14.68 3.14999C15.08 3.26999 15.5 3.04999 15.62 2.64999C15.74 2.24999 15.52 1.83001 15.12 1.71001C14.11 1.40001 13.06 1.25 12 1.25C6.07 1.25 1.25 6.07 1.25 12C1.25 17.93 6.07 22.75 12 22.75C17.93 22.75 22.75 17.93 22.75 12ZM12 18.75C9.73 18.75 7.79003 17.21 7.28003 15C7.18003 14.56 7.32999 14.1 7.67999 13.8C8.04999 13.49 8.55 13.4 9 13.58C11.02 14.39 12.97 14.39 14.99 13.58C15.44 13.4 15.95 13.48 16.31 13.8C16.66 14.1 16.81 14.56 16.71 15C16.2 17.21 14.26 18.75 11.99 18.75H12ZM8.89001 15.14C9.38001 16.4 10.6 17.25 12 17.25C13.4 17.25 14.62 16.4 15.11 15.14C13.04 15.86 10.95 15.86 8.89001 15.14ZM17.07 10.21C17.46 10.07 17.67 9.64999 17.53 9.25999C17.22 8.35999 16.37 7.75 15.41 7.75C14.45 7.75 13.6 8.34999 13.29 9.25999C13.16 9.64999 13.36 10.08 13.75 10.21C14.15 10.35 14.57 10.14 14.7 9.75C14.8 9.46 15.09 9.25999 15.4 9.25999C15.71 9.25999 16 9.46 16.1 9.75C16.21 10.06 16.5 10.26 16.81 10.26C16.89 10.26 16.97 10.25 17.06 10.22L17.07 10.21ZM10.25 10.21C10.64 10.07 10.85 9.64999 10.71 9.25999C10.4 8.35999 9.55003 7.75 8.59003 7.75C7.63003 7.75 6.77997 8.34999 6.46997 9.25999C6.33997 9.64999 6.53999 10.08 6.92999 10.21C7.32999 10.35 7.75 10.14 7.88 9.75C7.98 9.46 8.27002 9.25999 8.58002 9.25999C8.89002 9.25999 9.18003 9.46 9.28003 9.75C9.39003 10.06 9.67999 10.26 9.98999 10.26C10.07 10.26 10.15 10.25 10.24 10.22L10.25 10.21Z" fill="currentColor"/>
</svg>

<svg xmlns="http://www.w3.org/2000/svg" width="24" height="24" fill="none"><path fill="currentColor" d="M20 7.75c-1.42 0-2.5-1.1-2.5-2.57 0-1.59 1.76-3.49 1.96-3.7.28-.3.8-.3 1.09 0 .2.21 1.96 2.11 1.96 3.7 0 1.46-1.08 2.57-2.5 2.57H20Zm0-4.59c-.51.67-1 1.5-1 2.02 0 .63.41 1.07 1 1.07.59 0 1-.44 1-1.07 0-.52-.49-1.35-1-2.02ZM22.75 12c0-.85-.1-1.67-.29-2.46A.75.75 0 1 0 21 9.9c.17.67.25 1.37.25 2.1 0 5.1-4.15 9.25-9.25 9.25S2.75 17.1 2.75 12 6.9 2.75 12 2.75c.91 0 1.82.13 2.68.4.4.12.82-.1.94-.5a.75.75 0 0 0-.5-.94c-1.01-.31-2.06-.46-3.12-.46C6.07 1.25 1.25 6.07 1.25 12S6.07 22.75 12 22.75 22.75 17.93 22.75 12ZM12 18.75c-2.27 0-4.21-1.54-4.72-3.75-.1-.44.05-.9.4-1.2.37-.31.87-.4 1.32-.22 2.02.81 3.97.81 5.99 0 .45-.18.96-.1 1.32.22.35.3.5.76.4 1.2a4.817 4.817 0 0 1-4.72 3.75H12Zm-3.11-3.61A3.322 3.322 0 0 0 12 17.25c1.4 0 2.62-.85 3.11-2.11-2.07.72-4.16.72-6.22 0Zm8.18-4.93c.39-.14.6-.56.46-.95-.31-.9-1.16-1.51-2.12-1.51-.96 0-1.81.6-2.12 1.51-.13.39.07.82.46.95.4.14.82-.07.95-.46a.747.747 0 0 1 1.4 0 .76.76 0 0 0 .96.47l.01-.01Zm-6.82 0c.39-.14.6-.56.46-.95-.31-.9-1.16-1.51-2.12-1.51-.96 0-1.81.6-2.12 1.51-.13.39.07.82.46.95.4.14.82-.07.95-.46a.747.747 0 0 1 1.4 0 .76.76 0 0 0 .96.47l.01-.01Z"/></svg>
